icons/svg/panel-right.svg

<svg width="24" height="24" viewBox="0 0 24 24" fill="none" xmlns="http://www.w3.org/2000/svg">
<path d="M14.4527 3.75H16.75C18.683 3.75 20.25 5.317 20.25 7.25V16.75C20.25 18.683 18.683 20.25 16.75 20.25H14.4527M14.4527 3.75H7.25C5.317 3.75 3.75 5.317 3.75 7.25V16.75C3.75 18.683 5.317 20.25 7.25 20.25H14.4527M14.4527 3.75V20.25" stroke="currentColor" stroke-width="1.5" stroke-linecap="round" stroke-linejoin="round"/>
</svg>

<svg xmlns="http://www.w3.org/2000/svg" width="24" height="24" fill="none" viewBox="0 0 24 24"><path stroke="currentColor" stroke-linecap="round" stroke-linejoin="round" stroke-width="1.5" d="M14.453 3.75h2.297a3.5 3.5 0 0 1 3.5 3.5v9.5a3.5 3.5 0 0 1-3.5 3.5h-2.297m0-16.5H7.25a3.5 3.5 0 0 0-3.5 3.5v9.5a3.5 3.5 0 0 0 3.5 3.5h7.203m0-16.5v16.5"/></svg>
